X: 2
T: The Banshee's Wail Over The Mangle Pit
R: jig
M: 6/8
L: 1/8
K: Gdor
BAG ABA|GFD FGA|BAG Adc|AGG G2A|BAG ABA|GFD FGA|Bcd cdc|1 AGG G2A:|2 AGG G2e||:fed gfd|cAF FAc|fed gfe|def g2e|fed gfd|cAF FGA|Bcd cdc|1 AGG G2e:|2 AGG G3||


Tune 131	Setting 12742

